X:1
T:Title
%%score { ( 1 4 ) | ( 2 3 ) }
L:1/8
M:4/4
K:D
V:1 treble nm="Grand Piano"
V:4 treble 
V:2 bass 
V:3 bass 
V:1
 z4 z2[Q:1/4=100] [DF][EG] | [FA]2 [FA][FA] [GB][FA][DF][EG] | [FA]2 [Fd]4 [Ac][GB] | %3
 [FA]2 [FA][FA] [GB][FA][EG][DF] | [CE]6 [CE][DF] | [EG]2 [EG][EG] .[Gc]2 [A,FA][A,EG] | %6
 [A,DF]2 [DFA]4 [Fd]2 | c2 cc B2 EB |[M:3/4] [CA]6 |[M:1/4] [DF][EG] | %10
[M:4/4] [FA]2 [Fd]2 [Gc]2 [GB]>[Gc] | d6 z2 | B2 BB Bd[DAc][DGB] | [FA]6 [FA][FA] | %14
 [GB][FA][DF][EG] [FA]2 [Fd]>[FA] | z2 D2 D2 ed | c2 cc [Gc]2 [GB][Gc] |[M:3/4] [Fd]6 |] %18
V:2
 z4 z2 [D,A,][D,A,] | [D,D]2 [D,D][D,D] [D,D]2 [D,A,][D,A,] | [D,D]2 [D,A,]4 [D,D]2 | %3
 [D,D]2 [D,D][D,D] [D,D]2 [C,A,][D,A,] | [A,,A,]6 [A,,A,]2 | %5
 [A,,A,]2 [A,,A,][A,,A,] z[K:treble] B[K:bass]A,,A,, | D,2 D,4 [D,A,]2 | %7
 [E,A,E]2 [E,A,E][E,A,E] [E,^G,D]2 [E,G,D][E,G,D] |[M:3/4] [A,,A,]6 |[M:1/4] [D,A,]2 | %10
[M:4/4] [D,D]2 [D,A,]2 [A,,A,]2 [A,,A,]>[A,,A,] | [D,A,]2 [E,A,]2 [F,D]2 [D,D]2 | %12
 [G,DG]2 [G,DG][G,DG] GB[K:bass]G,G, | [D,D]6 [D,D][D,D] | [D,D]2 [D,A,][D,A,] [D,D]2 [D,D]>[D,D] | %15
 [G,D]2 G,2 G,2[K:treble] [G,B,G]2 | [A,G]2 [A,G][A,G][K:bass] [A,,A,]2 [A,,A,][A,,A,] | %17
[M:3/4] [D,A,]6 |] %18
V:3
 x8 | x8 | x8 | x8 | x8 | z4 [A,,A,]2[K:treble][K:bass] z2 | x8 | x8 |[M:3/4] x6 |[M:1/4] x2 | %10
[M:4/4] x8 | x8 | z4 [G,D]2[K:bass] z2 | x8 | x8 | x6[K:treble] x2 | x4[K:bass] x4 |[M:3/4] x6 |] %18
V:4
 x8 | x8 | x8 | x8 | x8 | x8 | x8 | x8 |[M:3/4] x6 |[M:1/4] x2 |[M:4/4] x8 | F2 G2 A2 [FA]2 | x8 | %13
 x8 | x8 | [GB]6 z2 | x8 |[M:3/4] x6 |] %18

